X:1
T: Widows Shall All Have Husbands
N:
C:
S:
A:
O:
R:
M:6/8
K:G
I:speed 160
%W: A1
% voice 1 (1 lines, 18 notes)
K:G
M:6/8
L:1/16
G2 |G4 G2 d3 e d2 c4 A2 B3 A G2 d4 G2 G4 A2 F6 G4 G2 |
%W: A2
% voice 1 (1 lines, 17 notes)
G4 G2 d3 e d2 c4 A2 B3 A G2 d4 G2 G4 A2 F6 G4 d2 |
%W: B1
% voice 1 (1 lines, 22 notes)
e4 d2 e2 f2 g2 f4 e2 d4 d2 e4 d2 e2 f2 g2 f6 d4 d2 |g4 f2 e2 d2 c2
%W:
% voice 1 (1 lines, 24 notes)
B4 B2 B4 B B c4 c2 c3 d e2 d2 B2 c2 d3 e f2 |e2 g2 G2 G4 A2 A6 G4 d2
%W: B2
% voice 1 (1 lines, 22 notes)
e4 d2 e2 f2 g2 f4 e2 d4 d2 |e4 d2 e2 f2 g2 f6 d4 d2 g4 f2 e2 d2 c2
%W:
% voice 1 (1 lines, 23 notes)
B4 B2 B4 B B |c4 c2 c3 d e2 d2 B2 c2 d3 e f2 e2 g2 G2 G4 A2 A6 G4 ||
